X:2
T:Gloire  Dieu - AL104
C:D. Julien
M:C
L:1/8
K:D
D2F2|A2 FA B2B2|A2 zF A2 GF|E3F G2 FD|E2 D2 F2 FE|D2 z2 FF FE|D2 z2 F2 FG|A2 z2 FF FG|
A2 z2 DD FG|A2 AB =cB AG|A2 A2 GG F2|ED E2 FF FD|EE D2 D2 F2|A2 FA B2 B2|
A2 zF A2 GF|E3F G2 FD|E2 D2 z2 FF|FF EE DD B,B,|A,2- A,2 z2 FF|FF EE DD B,B,|
A,2- A,2 E-E EF G2 G-G F-F DD|F2 E E AG FE|F2- Fz A2 E-E EF G2 G-G F-F DD|
F2 E E AG FE|F2- Fz z2 F-F|B2 BB A2 F-F|B2 BB A2 zF|BBBB A2 FE|
F2 zD B,B, CD|E2 DE (GF) E D|E2 E2 D2 F2|A2 FA B2 B2|A2 zF A2 GF|
E3F G2 FD|E2 D2 D2 F2|A2 BA =c2 B2|A2 zF A2 GF|E3F G2 FD|E2 D2||
